X:1
T:Amistad, 86.86.88.86
T:Amistad, 86.86.88.86
T:James McGranahan, 1891
T:Public Domain Courtesy of the Cyber Hymnal™
C:James McGranahan, 1891
Z:Public Domain
Z:Courtesy of the Cyber Hymnal™
%%score ( 1 2 ) ( 3 4 )
L:1/8
Q:1/4=107
M:4/4
K:Eb
V:1 treble 
V:2 treble 
V:3 bass 
V:4 bass 
V:1
 ([GB][FA]) | [EG]2 [EB]2 E2 [Ge]2 | [Bd]2 [Ac]2 [GB]4 | [GB]3 [GB] ([Ac][GB]) ([EG][B,E]) | %4
 [EG]4 [DF]2 (GF) | E2 [EG]2 [GB]2 [Ge]2 | [Bd]2 [Ac]2 [GB]4 | [AB]3 [AB] (cB) (AD) | %8
 [DF]4 E2 [EG]2 | [DF]2 [DB]2 [DB]2 [DF]2 | ([EG][FA]) ([GB][Ac]) [GB]2 [EG]2 | %11
 [DF]2 [FB]2 [F=A]2 [Fe]2 | ([Fd][Ec]) ([DB][C=A]) !fermata![DB]2 ([DB][F_A]) | %13
 [EG]2 [EB]2 E2 [Ge]2 | [Bd]2 [Ac]2 [GB]4 | [AB]3 [AB] (cB) (AD) | [DF]4 E2 |] %17
V:2
 x2 | x4 E2 x2 | x8 | x8 | x6 D2 | E2 x6 | x8 | x4 F2 B,2 | x4 E2 x2 | x8 | x8 | x8 | x8 | %13
 x4 E2 x2 | x8 | x4 F2 B,2 | x4 E2 |] %17
V:3
 [E,B,]2 | [E,B,]2 [E,G,]2 [G,B,]2 (B,E) | [A,E]2 [A,E]2 [E,E]4 | [E,E]3 [E,E] [E,E]2 [E,B,]2 | %4
 [B,,B,]4 [B,,B,]2 (B,A,) | [E,G,]2 [E,B,]2 [E,E]2 [E,E]2 | E2 E2 [E,E]4 | %7
 [F,D]3 [F,B,] [B,,A,]2 (F,A,) | [B,,A,]4 [E,G,]2 [E,B,]2 | [B,,B,]2 [B,,F,]2 [B,,F,]2 [B,,B,]2 | %10
 [E,B,]2 [E,E]2 [E,E]2 [E,B,]2 | [B,,B,]2 [B,,D]2 [F,C]2 [F,=A,]2 | %12
 (B,=A,) (B,F,) !fermata![B,,F,]2 (F,B,) | [E,B,]2 [E,G,]2 [G,B,]2 [E,B,]2 | E2 E2 [E,E]4 | %15
 [F,D]3 [F,B,] [B,,A,]2 (F,A,) | [B,,A,]4 [E,G,]2 |] %17
V:4
 x2 | x6 E,2 | x8 | x8 | x6 B,,2 | x8 | (A,,B,,) (C,D,) x4 | x6 B,,2 | x8 | x8 | x8 | x8 | %12
 F,2 F,2 x B,,2 x | x8 | (A,,B,,) (C,D,) x4 | x6 B,,2 | x6 |] %17

